X:913
T:Scottish de St Malo
C:Traditional
L:1/8
S:Colin Hume's website,  colinhume.com  - chords can also be printed below the stave.
N:For the dance "Driving Miss Mary" by Sharon Green
Q:1/4=120
M:2/2
R:Reel
K:G
P:A
|: "G"BABc B2B2 | "D"AGAB cBAG | "G"BABc B2B2 | "D7"A2A2 "G"G4 :|
P:B
"G"B2d2 "Em"g2g2 | "D"f2"C"e2 "G"d4 | "Em"BABc B2B2 | "D"AGAB cBAG |
"G"B2d2 "Em"g2g2 | "D"f2"C"e2 "G"d4 | "G"BABc B2B2 | "D7"A2A2 "G"G4 |]

